dist/img/warehouse.svg

<?xml version="1.0" encoding="UTF-8"?>
<svg width="50px" height="50px" viewBox="0 0 50 50" version="1.1" xmlns="http://www.w3.org/2000/svg" xmlns:xlink="http://www.w3.org/1999/xlink">
    <!-- Generator: sketchtool 52.5 (67469) - http://www.bohemiancoding.com/sketch -->
    <title>DFC5A434-B174-4310-9CDF-20A47DFAFEB4</title>
    <desc>Created with sketchtool.</desc>
    <g id="Page-1" stroke="none" stroke-width="1" fill="none" fill-rule="evenodd">
        <g id="desktop" transform="translate(-999.000000, -894.000000)" fill="#80BA27" fill-rule="nonzero">
            <g id="Warehouse_000000" transform="translate(999.000000, 893.000000)">
                <path d="M24.84375,1 C24.756601,1.01993564 24.6725186,1.05146657 24.59375,1.09375 L0.59375,11.875 C0.224710095,12.0389663 -0.00950906721,12.408786 1.32227779e-13,12.8125 L1.32227779e-13,17.3125 C0.00258015663,17.649674 0.174888197,17.9628493 0.458315216,18.1455023 C0.741742235,18.3281552 1.09812749,18.3556934 1.40625,18.21875 L2,17.9375 L2,28.6875 C1.9399575,28.8808629 1.9399575,29.0878871 2,29.28125 L2,50 C2.00005522,50.5522619 2.44773812,50.9999448 3,51 L24.8125,51 L25.21875,51 L47,51 C47.5522619,50.9999448 47.9999448,50.5522619 48,50 L48,29.1875 C48.0277934,29.0535094 48.0277934,28.9152406 48,28.78125 L48,17.9375 L48.59375,18.21875 C48.9018725,18.3556934 49.2582578,18.3281552 49.5416848,18.1455023 C49.8251118,17.9628493 49.9974198,17.649674 50,17.3125 L50,12.8125 C50.0095091,12.408786 49.7752899,12.0389663 49.40625,11.875 L25.40625,1.09375 C25.2598756,1.02506782 25.0990311,0.992898928 24.9375,1 C24.9062672,0.998534497 24.8749828,0.998534497 24.84375,1 L24.84375,1 Z M25,3.09375 L48,13.4375 L48,15.75 L47.5625,15.5625 C47.542037,15.5513585 47.521191,15.5409355 47.5,15.53125 L47.46875,15.5 C47.448287,15.4888585 47.427441,15.4784355 47.40625,15.46875 L47.375,15.46875 C47.344284,15.4567948 47.3129959,15.4463654 47.28125,15.4375 L25.65625,5.625 C25.635787,5.61385848 25.614941,5.60343545 25.59375,5.59375 L25.5625,5.5625 C25.3982637,5.44457771 25.2021424,5.37920396 25,5.375 C24.758222,5.3762671 24.5250887,5.46507979 24.34375,5.625 L2.8125,15.375 C2.78075414,15.3838654 2.74946595,15.3942948 2.71875,15.40625 C2.65313837,15.4308453 2.59029322,15.4622679 2.53125,15.5 C2.49950414,15.5088654 2.46821595,15.5192948 2.4375,15.53125 L2.40625,15.5625 C2.39560442,15.5726852 2.38518521,15.5831044 2.375,15.59375 L2,15.75 L2,13.4375 L25,3.09375 Z M24,7.96875 L24,28 L4,28 L4,17.03125 L9.1875,14.6875 C9.39677463,14.9097214 9.69575086,15.0247123 10,15 L18,15 C18.3606359,15.0051003 18.6960814,14.8156247 18.8778877,14.5041272 C19.0596941,14.1926296 19.0596941,13.8073704 18.8778877,13.4958728 C18.6960814,13.1843753 18.3606359,12.9948997 18,13 L12.90625,13 L24,7.96875 Z M26,7.96875 L37.09375,13 L32,13 C31.9687672,12.9985345 31.9374828,12.9985345 31.90625,13 C31.5489844,13.0167468 31.2277917,13.2228205 31.0636621,13.5405949 C30.8995325,13.8583694 30.9174011,14.2395673 31.1105371,14.5405949 C31.3036731,14.8416226 31.6427344,15.0167468 32,15 L40,15 C40.287817,14.9986767 40.5611112,14.8734168 40.75,14.65625 L46,17.03125 L46,28 L26,28 L26,7.96875 Z M4,30 L24,30 L24,49 L4,49 L4,30 Z M26,30 L46,30 L46,49 L26,49 L26,30 Z M9.71875,33 C9.16646527,33.0776651 8.78171,33.5883403 8.85937504,34.140625 C8.93704008,34.6929097 9.44771526,35.077665 10,35 L18,35 C18.3606359,35.0051003 18.6960814,34.8156247 18.8778877,34.5041272 C19.0596941,34.1926296 19.0596941,33.8073704 18.8778877,33.4958728 C18.6960814,33.1843753 18.3606359,32.9948997 18,33 L10,33 C9.96876718,32.9985345 9.93748282,32.9985345 9.90625,33 C9.87501715,32.998536 9.84373285,32.998536 9.8125,33 C9.78126704,32.9985408 9.74998296,32.9985408 9.71875,33 Z M31.71875,33 C31.1664653,33.0776651 30.78171,33.5883403 30.859375,34.140625 C30.9370401,34.6929097 31.4477153,35.077665 32,35 L40,35 C40.3606359,35.0051003 40.6960814,34.8156247 40.8778877,34.5041272 C41.0596941,34.1926296 41.0596941,33.8073704 40.8778877,33.4958728 C40.6960814,33.1843753 40.3606359,32.9948997 40,33 L32,33 C31.9687672,32.9985345 31.9374828,32.9985345 31.90625,33 C31.8750171,32.998536 31.8437329,32.998536 31.8125,33 C31.781267,32.9985408 31.749983,32.9985408 31.71875,33 Z" id="Shape"></path>
            </g>
        </g>
    </g>
</svg>

<svg width="50" height="50" viewBox="0 0 50 50" xmlns="http://www.w3.org/2000/svg" xmlns:xlink="http://www.w3.org/1999/xlink"><g id="Page-1" stroke="none" stroke-width="1" fill="none" fill-rule="evenodd"><g id="desktop" transform="translate(-999 -894)" fill="#80BA27" fill-rule="nonzero"><g id="Warehouse_000000" transform="translate(999 893)"><path d="M24.844 1a1 1 0 0 0-.25.094l-24 10.781a1 1 0 0 0-.594.938v4.5a1 1 0 0 0 1.406.906L2 17.937v10.75c-.06.194-.06.4 0 .594V50a1 1 0 0 0 1 1h44a1 1 0 0 0 1-1V29.187a1 1 0 0 0 0-.406V17.938l.594.28A1 1 0 0 0 50 17.314v-4.5a1 1 0 0 0-.594-.938l-24-10.781A1 1 0 0 0 24.938 1a1 1 0 0 0-.094 0zM25 3.094l23 10.344v2.312l-.438-.188a1 1 0 0 0-.062-.03l-.031-.032a1 1 0 0 0-.063-.031h-.031a1 1 0 0 0-.094-.031L25.656 5.624a1 1 0 0 0-.062-.031l-.032-.032A1 1 0 0 0 25 5.375a1 1 0 0 0-.656.25l-21.532 9.75a1 1 0 0 0-.281.125 1 1 0 0 0-.093.031l-.032.031a1 1 0 0 0-.031.032L2 15.75v-2.313L25 3.095zm-1 4.875V28H4V17.031l5.188-2.343c.209.222.508.337.812.312h8a1 1 0 1 0 0-2h-5.094L24 7.969zm2 0L37.094 13H32a1 1 0 1 0 0 2h8a1 1 0 0 0 .75-.344L46 17.031V28H26V7.969zM4 30h20v19H4V30zm22 0h20v19H26V30zM9.719 33A1.01 1.01 0 0 0 10 35h8a1 1 0 1 0 0-2h-8a1 1 0 0 0-.094 0 1.001 1.001 0 0 0-.094 0 1.004 1.004 0 0 0-.093 0zm22 0A1.01 1.01 0 0 0 32 35h8a1 1 0 1 0 0-2h-8a1 1 0 0 0-.094 0 1.001 1.001 0 0 0-.093 0 1.004 1.004 0 0 0-.094 0z" id="Shape"/></g></g></g></svg>
